X:16
T:Happy Couple
M:6/8
L:1/8
N:The 'g' note in the 7th measure may be played sharp.
B:Thompson's Compleat Collection of 200 Favourite Country Dances, vol. 1 (London, 1757)
Z:Transcribed and edited by Fynnian Titford-Mock, 2007
Z:abc's:AK/Fiddler's Companion
K:D
A|B2c d2A|B2c d2A|BdB AdA|F>ED A3|G3 (Fd)c|cBA ^G>AB|
g>ab "tr"d3|cea ce/d/c/B/|A3 A2::A|BGB Adf|eAG F2A|
BGB A2d|e/f/gf e2G|GFB Bad|dcf fed|{d}"tr"c2d g>fe|d>AF D2:|

